assets/media/img/about-23.svg

<svg width="41" height="41" viewBox="0 0 41 41" fill="none" xmlns="http://www.w3.org/2000/svg">
<path fill-rule="evenodd" clip-rule="evenodd" d="M18.3612 0.0737414C18.5944 -0.0708231 18.9017 0.00369331 19.0476 0.240177L20.9408 3.30848C22.0509 5.10761 22.928 7.04082 23.5504 9.06045L23.9664 10.4101C24.7053 12.8072 24.9391 15.3285 24.653 17.8115C24.1461 22.2098 22.0371 26.2458 18.7336 29.1398L18.1186 29.6786L20.7135 29.347C20.7288 29.3358 20.745 29.3254 20.7619 29.3158C25.9424 26.3742 29.1984 20.9238 29.3526 14.9352L29.3929 13.3721C29.5074 8.92381 28.1356 4.5533 25.4956 0.955817L25.3789 0.796781C25.2149 0.573224 25.2615 0.259972 25.4831 0.0971147C25.7047 -0.0657403 26.0173 -0.0165325 26.1813 0.207027L26.298 0.366063C29.0705 4.14416 30.5112 8.73409 30.3909 13.4057L30.3507 14.9689C30.3038 16.7878 29.9866 18.5599 29.4284 20.2358C28.9857 20.4644 28.619 20.8714 28.4472 21.4569L27.7282 23.9064C27.3821 24.4757 27.0045 25.0257 26.5971 25.5536L24.0048 27.3199C23.4274 27.7134 23.1338 28.3398 23.1242 28.9701C23.0874 28.9976 23.0504 29.0249 23.0134 29.0521C23.0504 29.047 23.0873 29.0417 23.1243 29.0364C23.1298 29.3734 23.2165 29.7092 23.3844 30.0089C23.2357 30.0312 23.0868 30.052 22.9375 30.071L17.1042 30.8163C15.0306 31.0812 12.9985 31.6059 11.0559 32.3781C7.44507 33.8132 4.21976 36.0726 1.6374 38.9759L0.873603 39.8346C0.690078 40.041 0.374036 40.0595 0.167703 39.8759C-0.0386291 39.6924 -0.057118 39.3764 0.126407 39.17L0.890199 38.3113C1.67243 37.4319 2.51139 36.6092 3.40045 35.848C3.40888 35.8328 3.41818 35.8179 3.42838 35.8033L3.80026 35.2713C5.08509 33.4332 5.95415 31.3374 6.34701 29.1295C6.5648 27.9055 6.63398 26.6596 6.55304 25.4191L6.52803 25.0357C6.31972 21.8429 5.2918 18.7577 3.5435 16.078L3.41942 15.8878C3.26854 15.6565 3.3337 15.3467 3.56498 15.1958C3.79625 15.0449 4.10605 15.1101 4.25694 15.3414L4.38102 15.5316C6.22326 18.3553 7.30641 21.6062 7.52591 24.9706L7.55092 25.354C7.6371 26.6749 7.56344 28.0014 7.33155 29.3046C7.03271 30.9841 6.4751 32.6027 5.68216 34.1038C6.64331 33.4501 7.64863 32.8609 8.69163 32.3408L9.14562 31.3878C10.317 28.9291 11.0318 26.2774 11.2553 23.5616L11.2778 23.2876C11.3513 22.3945 11.3605 21.4972 11.3053 20.6026L11.2644 19.9412C11.0404 16.3125 9.6398 12.8538 7.27485 10.0893C7.0952 9.87928 7.11954 9.56365 7.32922 9.38432C7.53891 9.20499 7.85453 9.22986 8.03419 9.43987C10.5406 12.3698 12.0251 16.0354 12.2625 19.8812L12.3033 20.5426C12.3615 21.4851 12.3518 22.4304 12.2744 23.3713L12.2518 23.6453C12.0225 26.4324 11.2976 29.155 10.1118 31.6852C10.3023 31.6042 10.4939 31.5253 10.6865 31.4488C11.3152 31.1989 11.9529 30.9739 12.598 30.7743L13.5269 29.4567C14.636 27.8836 15.5039 26.1514 16.102 24.3171C16.7362 22.3722 17.0596 20.3128 17.0597 18.2602C17.0598 14.1323 15.782 10.0499 13.405 6.66465L12.0172 4.68827C11.8578 4.46124 11.9108 4.14899 12.1356 3.99084C12.3605 3.8327 12.6719 3.88854 12.8314 4.11558L14.2191 6.09196C16.7172 9.64959 18.0578 13.9355 18.0577 18.2686C18.0576 20.4257 17.718 22.5899 17.0508 24.636C16.4218 26.5647 15.5093 28.386 14.3432 30.0401L14.1226 30.353C14.8518 30.1752 15.5888 30.0291 16.3316 29.9151C16.3479 29.8955 16.366 29.877 16.3858 29.8596L18.0755 28.3794C21.194 25.6475 23.1848 21.8375 23.6633 17.6856C23.9335 15.3416 23.7127 12.9615 23.0152 10.6986L22.5993 9.34903C22.0022 7.41189 21.1609 5.55764 20.0962 3.83199L18.203 0.763688C18.0571 0.527205 18.1279 0.218306 18.3612 0.0737414ZM33.696 25.2728C33.8955 25.0879 34.0908 24.898 34.2815 24.703C37.1105 21.8116 38.7914 17.9901 39.011 13.9509L39.1575 11.2543C39.1725 10.9785 38.9612 10.7429 38.6854 10.7279C38.4097 10.7129 38.174 10.9243 38.159 11.2L38.0124 13.8966C37.8061 17.6935 36.2259 21.2857 33.5667 24.0037C33.4201 24.1535 33.2707 24.3002 33.1186 24.4437C33.2388 24.7662 33.4378 25.0516 33.696 25.2728ZM32.5703 22.5943C33.122 21.6764 33.5991 20.708 33.9943 19.698C35.6379 15.4978 35.7665 10.8322 34.3577 6.51248L33.6196 4.24934C33.5333 3.98484 33.252 3.83877 32.9912 3.92308C32.7305 4.00739 32.589 4.29015 32.6753 4.55465L33.4133 6.81778C34.7491 10.9135 34.6272 15.3372 33.0689 19.3195C32.8069 19.9889 32.507 20.639 32.1716 21.267C32.1955 21.3281 32.2172 21.3913 32.2365 21.4569L32.5703 22.5943Z" fill="#46403C"/>
<path fill-rule="evenodd" clip-rule="evenodd" d="M27.3629 26.2336L24.5211 28.17C23.9401 28.5658 23.9401 29.4383 24.5211 29.8341L27.3629 31.7705C27.9314 32.1578 28.3499 32.7357 28.5462 33.4046L29.4046 36.3292C29.6836 37.2794 31 37.2794 31.2789 36.3292L32.1374 33.4046C32.3337 32.7357 32.7522 32.1578 33.3207 31.7705L36.1625 29.8341C36.7435 29.4383 36.7435 28.5658 36.1625 28.17L33.3207 26.2336C32.7522 25.8463 32.3337 25.2684 32.1374 24.5995L31.2789 21.6749C31 20.7247 29.6836 20.7247 29.4046 21.6749L28.5462 24.5995C28.3499 25.2684 27.9314 25.8463 27.3629 26.2336ZM32.2161 21.3876C31.6583 19.4872 29.0253 19.4872 28.4675 21.3876L27.609 24.3122C27.4782 24.7581 27.1992 25.1434 26.8202 25.4016L23.9783 27.3379C22.8165 28.1296 22.8165 29.8745 23.9783 30.6661L26.8202 32.6025C27.1992 32.8607 27.4782 33.246 27.609 33.6919L28.4675 36.6165C29.0253 38.5169 31.6583 38.5169 32.2161 36.6165L33.0745 33.6919C33.2054 33.246 33.4844 32.8607 33.8634 32.6025L36.7053 30.6661C37.8671 29.8745 37.8671 28.1296 36.7053 27.3379L33.8634 25.4016C33.4844 25.1434 33.2054 24.7581 33.0745 24.3122L32.2161 21.3876Z" fill="#46403C"/>
</svg>

<svg width="41" height="41" fill="none" xmlns="http://www.w3.org/2000/svg"><path fill-rule="evenodd" clip-rule="evenodd" d="M18.361.074a.499.499 0 01.687.166l1.893 3.068a24.946 24.946 0 012.61 5.752l.415 1.35a18.08 18.08 0 01.687 7.401 17.745 17.745 0 01-5.92 11.329l-.614.539 2.595-.332a.5.5 0 01.048-.031c5.18-2.942 8.436-8.392 8.59-14.38l.04-1.564A20.122 20.122 0 0025.497.956l-.117-.16a.5.5 0 01.104-.699.5.5 0 01.698.11l.117.16a21.132 21.132 0 014.093 13.039l-.04 1.563a18.138 18.138 0 01-.923 5.267c-.442.228-.809.635-.98 1.22l-.72 2.45c-.346.57-.724 1.12-1.13 1.648l-2.593 1.766a2.018 2.018 0 00-.88 1.65l-.112.082.111-.016c.006.337.093.673.26.973a20.25 20.25 0 01-.447.062l-5.833.745a24.924 24.924 0 00-15.467 8.16l-.763.859a.5.5 0 11-.748-.665l.764-.859a25.93 25.93 0 012.51-2.463.51.51 0 01.028-.045l.372-.532a15.442 15.442 0 002.753-9.852l-.025-.383a18.611 18.611 0 00-2.984-8.958l-.125-.19a.5.5 0 01.838-.547l.124.19a19.611 19.611 0 013.145 9.44l.025.383a16.441 16.441 0 01-1.869 8.75 25.915 25.915 0 013.01-1.763l.454-.953a22.483 22.483 0 002.11-7.826l.022-.274c.073-.893.082-1.79.027-2.685l-.04-.662a16.744 16.744 0 00-3.99-9.852.5.5 0 11.76-.65 17.746 17.746 0 014.227 10.442l.041.662c.058.942.049 1.887-.029 2.828l-.022.274a23.483 23.483 0 01-2.14 8.04 25.95 25.95 0 012.486-.91l.929-1.318a19.303 19.303 0 002.575-5.14 19.61 19.61 0 00.958-6.057 20.25 20.25 0 00-3.655-11.595l-1.388-1.977a.5.5 0 01.119-.697.5.5 0 01.695.125l1.388 1.976a21.263 21.263 0 013.839 12.177c0 2.157-.34 4.32-1.007 6.367a20.303 20.303 0 01-2.708 5.404l-.22.313a25.93 25.93 0 012.209-.438.497.497 0 01.054-.055l1.69-1.48a16.751 16.751 0 005.587-10.694c.27-2.344.05-4.725-.648-6.987l-.416-1.35a23.936 23.936 0 00-2.503-5.517L18.203.764a.501.501 0 01.158-.69zm15.335 25.199a16.668 16.668 0 005.315-11.322l.147-2.697a.5.5 0 10-.999-.054l-.147 2.697a15.668 15.668 0 01-4.893 10.547c.12.322.319.608.577.829zm-1.126-2.679a19.208 19.208 0 001.424-2.896 19.56 19.56 0 00.364-13.186L33.62 4.25a.502.502 0 00-.629-.326.498.498 0 00-.316.632l.738 2.263a18.545 18.545 0 01-.344 12.502 18.37 18.37 0 01-.897 1.947c.024.061.045.124.065.19l.333 1.137z" fill="#46403C"/><path fill-rule="evenodd" clip-rule="evenodd" d="M27.363 26.234L24.52 28.17a1.012 1.012 0 000 1.664l2.842 1.936a3 3 0 011.183 1.635l.859 2.924c.279.95 1.595.95 1.874 0l.858-2.924a2.995 2.995 0 011.184-1.635l2.842-1.936a1.012 1.012 0 000-1.664l-2.842-1.936a2.995 2.995 0 01-1.184-1.635l-.858-2.924c-.279-.95-1.595-.95-1.874 0l-.859 2.924a2.995 2.995 0 01-1.183 1.635zm4.853-4.846c-.558-1.9-3.19-1.9-3.748 0l-.859 2.924c-.13.446-.41.831-.789 1.09l-2.842 1.936c-1.162.792-1.162 2.537 0 3.328l2.842 1.936c.38.259.658.644.789 1.09l.858 2.925c.558 1.9 3.191 1.9 3.75 0l.858-2.925a2 2 0 01.788-1.09l2.842-1.936c1.162-.791 1.162-2.536 0-3.328l-2.842-1.936a1.997 1.997 0 01-.788-1.09l-.859-2.924z" fill="#46403C"/></svg>
